symbols/web/event_available/materialsymbolsoutlined/event_available_wght200fill1_24px.svg

<svg xmlns="http://www.w3.org/2000/svg" height="24" width="24"><path d="M10.95 17.625 8.1 14.75l.7-.7 2.15 2.125 4.25-4.225.7.7ZM5.625 21q-.7 0-1.162-.462Q4 20.075 4 19.375V6.625q0-.7.463-1.162Q4.925 5 5.625 5h1.75V2.775H8.45V5h7.175V2.775h1V5h1.75q.7 0 1.163.463.462.462.462 1.162v12.75q0 .7-.462 1.163-.463.462-1.163.462Zm0-1h12.75q.25 0 .437-.188.188-.187.188-.437v-8.75H5v8.75q0 .25.188.437.187.188.437.188Z"/></svg>

<svg xmlns="http://www.w3.org/2000/svg" height="24" width="24"><path d="M10.95 17.625 8.1 14.75 8.8 14.05 10.95 16.175 15.2 11.95 15.9 12.65ZM5.625 21Q4.925 21 4.463 20.538Q4 20.075 4 19.375V6.625Q4 5.925 4.463 5.463Q4.925 5 5.625 5H7.375V2.775H8.45V5H15.625V2.775H16.625V5H18.375Q19.075 5 19.538 5.463Q20 5.925 20 6.625V19.375Q20 20.075 19.538 20.538Q19.075 21 18.375 21ZM5.625 20H18.375Q18.625 20 18.812 19.812Q19 19.625 19 19.375V10.625H5V19.375Q5 19.625 5.188 19.812Q5.375 20 5.625 20Z"/></svg>
